!!!OTL: Es f&auml;ngt ein neues Fr&uuml;hjahr an! (1-33), S. 87
!!!id: K1081
**kern
*clefG2
*k[b-]
*F:
{8a
=1
16f
16f
16g
16g
4a
8a
8a
=2
8g
16g
16g
4f}
8r
=3
{8a
=4
8f
8f
8a
8a
4cc
=5
8cc
8ff
8dd
16dd
16dd
8cc}
=6
{8a
=7
8b-
8g
4f
4cc
=8
8.cc
16b-
4a}
8r
==
*-
!!!minrhy: 16
!!!meters: 3/4 ]  ZZ[3
!!!cut: Es f&auml;ngt ein neues Fr&uuml;hjahr an! (1-33), S. 87
!!!reg: Luxemburg
!!!trd: KINTZELE, Guillaume: An der Ucht, Bd. 1, Luxemburg 1926
!!!rhy1: X_  XXXXX__X_X_  X_XXX__0_
!!!rhy2: X_  X_X_X_X_X__  X_X_X_XXX_
!!!key: K1081  16  F 3/4 ]  ZZ[3
!!!mod: SECHSTONSKALA DUR ?]  AMBITUS[8
!!!kad: 153
!!!akz: 12_15_45_
!!!fot: 'a__b__c__
!!!for: 'a__b__c__
!!!fok: 'Sd_Sa_S__
!! PHRAS[AUFTAKTIG]
!!!fkt: Liebesklage
!!!bem: in der Quelle mit einer 2. Stimme versehen
!! KINTZELE
!! PR[38] 2K[3] 2G[5] 3K[2] 3G[0] 4A[0] 4Ü[0] 5A[2] 6K[0] 6G[6]
!! 7K[0] 7G[0] 8A[3] MEHR[0] SI[20] ABS[66] SR[8] SP[12]
!! ST[16] 2k[6] 2g[20] 3k[9] 3g[6] 4d[2] 4ü[0] 5d[0] 6k[0] 6g[0]
!! 7k[0] 7g[0] 8d[0] mehr[0] si[42] dm[-22] sr[26] sp[17]
!! 1F[23] 2F[65] 3F[13] 4F[0] LF[0] 2P[0] 3P[0] 4P[0] TRI[0] DF[3] AB[71]
!! TF[0] U3K[0] U3[0] U4[0] U4Ü[0] U5[9] U6K[0] U6[6] U7K[0] U7[6]
!! N1[12] N2K[0] N2[15] N3K[0] N3[27] N4[9] N4Ü[0] N5[15] N6K[0] N6[1]
!!!n7k: 0] N7[0] O1[0] O2K[0] O2[0] O3K[0] O3[0] HÖ[0
!!!RNB: symbol: &auml;      = a umlaut  (UTF-8: Å„)
!!!RNB: symbol: &uuml;  = u umlaut (UTF-8: Ã¼)
